src/lib/packages/icons/src/assets/filled/alarm-minus-alt.svg

<svg width="24" height="24" viewBox="0 0 24 24" fill="none" xmlns="http://www.w3.org/2000/svg">
<path d="M17.4751 3.57607C17.1801 3.28607 17.1751 2.81104 17.4641 2.51504C17.7561 2.21904 18.2299 2.21405 18.5259 2.50405L20.5259 4.46401C20.8209 4.75401 20.8261 5.22905 20.5371 5.52505C20.3901 5.67505 20.195 5.75002 20.001 5.75002C19.812 5.75002 19.6221 5.67903 19.4761 5.53603L17.4751 3.57607ZM4.53005 2.46999C4.23705 2.17699 3.76202 2.17699 3.46902 2.46999L1.46902 4.46999C1.17602 4.76299 1.17602 5.23803 1.46902 5.53103C1.61502 5.67703 1.80705 5.751 1.99905 5.751C2.19105 5.751 2.38308 5.67803 2.52908 5.53103L4.52908 3.53103C4.82308 3.23703 4.82305 2.76299 4.53005 2.46999ZM12.5 17V19C12.5 19.462 12.5431 19.812 12.2271 19.908C11.8271 19.969 11.414 20 11 20C9.84102 20 8.74302 19.7489 7.75002 19.3059L5.53103 21.5301C5.38503 21.6761 5.19202 21.75 5.00002 21.75C4.80902 21.75 4.61697 21.677 4.47097 21.531C4.17697 21.239 4.17702 20.763 4.46902 20.47L6.397 18.5371C4.344 17.0891 3.00002 14.704 3.00002 11.999C3.00002 7.57905 6.58002 3.99905 11 3.99905C15.42 3.99905 19 7.57905 19 11.999C19 12.478 18.666 12.499 18.666 12.499H17C14.18 12.5 12.5 14.18 12.5 17ZM11.75 8.04006C11.75 7.62606 11.414 7.29006 11 7.29006C10.586 7.29006 10.25 7.62606 10.25 8.04006V12.0401C10.25 12.4541 10.586 12.7901 11 12.7901C11.414 12.7901 11.75 12.4541 11.75 12.0401V8.04006ZM22 17V19C22 21 21 22 19 22H17C15 22 14 21 14 19V17C14 15 15 14 17 14H19C21 14 22 15 22 17ZM19.75 18C19.75 17.724 19.526 17.5 19.25 17.5H16.75C16.474 17.5 16.25 17.724 16.25 18C16.25 18.276 16.474 18.5 16.75 18.5H19.25C19.526 18.5 19.75 18.276 19.75 18Z" fill="currentColor"/>
</svg>

<svg xmlns="http://www.w3.org/2000/svg" width="24" height="24" fill="none"><path fill="currentColor" d="M17.475 3.576a.751.751 0 0 1 1.05-1.072l2 1.96a.752.752 0 0 1-.524 1.286.748.748 0 0 1-.525-.214l-2-1.96ZM4.53 2.47a.75.75 0 0 0-1.061 0l-2 2a.75.75 0 0 0 1.06 1.061l2-2A.75.75 0 0 0 4.53 2.47ZM12.5 17v2c0 .462.043.812-.273.908-.4.061-.813.092-1.227.092a7.954 7.954 0 0 1-3.25-.694L5.531 21.53a.75.75 0 0 1-1.062-1.06l1.928-1.933A7.998 7.998 0 0 1 11 4c4.42 0 8 3.58 8 8 0 .479-.334.5-.334.5H17c-2.82.001-4.5 1.681-4.5 4.501Zm-.75-8.96a.75.75 0 0 0-1.5 0v4a.75.75 0 0 0 1.5 0v-4ZM22 17v2c0 2-1 3-3 3h-2c-2 0-3-1-3-3v-2c0-2 1-3 3-3h2c2 0 3 1 3 3Zm-2.25 1a.5.5 0 0 0-.5-.5h-2.5a.5.5 0 0 0 0 1h2.5a.5.5 0 0 0 .5-.5Z"/></svg>
